X: 36555
T: Seven Stars Of Summer, The
R: jig
M: 6/8
K: Gmajor
M:7/8
|:"(G)"DGA|"G"BB "D"A2cBG|"Am"GG"D"A2BcB|"Em"BB"D"A2ded|"C"de"G"B2ded|
"Em"BB"D"A2 B"Am"cA|"C"EG"G"D2Bcd|"C"gfd2B"D"cA|1 "C"GA"G"G2:|2 "C"GA"G"G2Bcd||
|:"Em"ga"C"g2gfe|"Am"ce"G"d2Bcd|"Em"BB"D"A2ded|"Em"BG"G"D2Bcd|
"Am"ec"D"A2B"Am"ce|"G"dd"C"G2dge|"Em"BB"D"A2ded|1 "C"GA"G"G2Bcd:|2 "C"GA"G"G2||

